www/assets/icons/grid_4x4.svg

<svg xmlns="http://www.w3.org/2000/svg" width="24" height="24" viewBox="0 0 24 24" fill='currentColor'><path d="M22 7V5h-3V2h-2v3h-4V2h-2v3H7V2H5v3H2v2h3v4H2v2h3v4H2v2h3v3h2v-3h4v3h2v-3h4v3h2v-3h3v-2h-3v-4h3v-2h-3V7zM7 7h4v4H7zm0 10v-4h4v4zm10 0h-4v-4h4zm0-6h-4V7h4z"/></svg>

<svg width="24" height="24" viewBox="0 0 24 24" xmlns="http://www.w3.org/2000/svg" fill='currentColor'><path d="M22 7V5H19V2H17V5H13V2H11V5H7V2H5V5H2V7H5V11H2V13H5V17H2V19H5V22H7V19H11V22H13V19H17V22H19V19H22V17H19V13H22V11H19V7H22ZM7 7H11V11H7V7ZM7 17V13H11V17H7ZM17 17H13V13H17V17ZM17 11H13V7H17V11Z"/></svg>
